icons/discount.svg

<svg width="24" height="24" viewBox="0 0 24 24" fill="none" xmlns="http://www.w3.org/2000/svg">
<path d="M9 15L15 9" stroke="white" stroke-width="2" stroke-linecap="round" stroke-linejoin="round"/>
<path d="M8.5 9C8.63261 9 8.75979 8.94732 8.85355 8.85355C8.94732 8.75979 9 8.63261 9 8.5C9 8.36739 8.94732 8.24021 8.85355 8.14645C8.75979 8.05268 8.63261 8 8.5 8C8.36739 8 8.24021 8.05268 8.14645 8.14645C8.05268 8.24021 8 8.36739 8 8.5C8 8.63261 8.05268 8.75979 8.14645 8.85355C8.24021 8.94732 8.36739 9 8.5 9Z" stroke="white" stroke-width="2" stroke-linecap="round" stroke-linejoin="round"/>
<path d="M15.5 16C15.6326 16 15.7598 15.9473 15.8536 15.8536C15.9473 15.7598 16 15.6326 16 15.5C16 15.3674 15.9473 15.2402 15.8536 15.1464C15.7598 15.0527 15.6326 15 15.5 15C15.3674 15 15.2402 15.0527 15.1464 15.1464C15.0527 15.2402 15 15.3674 15 15.5C15 15.6326 15.0527 15.7598 15.1464 15.8536C15.2402 15.9473 15.3674 16 15.5 16Z" stroke="white" stroke-width="2" stroke-linecap="round" stroke-linejoin="round"/>
<path d="M4.21001 6.65502C4.21001 6.00656 4.46761 5.38467 4.92613 4.92614C5.38466 4.46762 6.00656 4.21002 6.65501 4.21002H7.76601C8.41201 4.21002 9.03101 3.95402 9.48901 3.49902L10.266 2.72102C10.4932 2.49244 10.7634 2.31104 11.061 2.18726C11.3586 2.06348 11.6777 1.99976 12 1.99976C12.3223 1.99976 12.6414 2.06348 12.939 2.18726C13.2366 2.31104 13.5068 2.49244 13.734 2.72102L14.511 3.49902C14.969 3.95402 15.588 4.20902 16.234 4.21002H17.345C17.9935 4.21002 18.6154 4.46762 19.0739 4.92614C19.5324 5.38467 19.79 6.00656 19.79 6.65502V7.76602C19.79 8.41202 20.046 9.03102 20.501 9.48902L21.279 10.266C21.5075 10.4933 21.6888 10.7635 21.8125 11.0611C21.9362 11.3587 21.9999 11.6778 21.9999 12C21.9999 12.3223 21.9362 12.6414 21.8125 12.939C21.6888 13.2365 21.5075 13.5067 21.279 13.734L20.501 14.511C20.0457 14.9689 19.7901 15.5883 19.79 16.234V17.345C19.79 17.9935 19.5324 18.6154 19.0739 19.0739C18.6154 19.5324 17.9935 19.79 17.345 19.79H16.234C15.588 19.79 14.969 20.046 14.511 20.501L13.734 21.279C13.5068 21.5076 13.2366 21.689 12.939 21.8128C12.6414 21.9366 12.3223 22.0003 12 22.0003C11.6777 22.0003 11.3586 21.9366 11.061 21.8128C10.7634 21.689 10.4932 21.5076 10.266 21.279L9.48901 20.501C9.03115 20.0457 8.41172 19.7901 7.76601 19.79H6.65501C6.00656 19.79 5.38466 19.5324 4.92613 19.0739C4.46761 18.6154 4.21001 17.9935 4.21001 17.345V16.234C4.21001 15.588 3.95401 14.969 3.49901 14.511L2.72101 13.734C2.49231 13.5069 2.31081 13.2367 2.18695 12.9391C2.06309 12.6415 1.99933 12.3224 1.99933 12C1.99933 11.6777 2.06309 11.3585 2.18695 11.0609C2.31081 10.7633 2.49231 10.4932 2.72101 10.266L3.49901 9.48902C3.95401 9.03102 4.20901 8.41202 4.21001 7.76602V6.65502" stroke="white" stroke-width="2" stroke-linecap="round" stroke-linejoin="round"/>
<path d="M8.5 8.5H8.51" stroke="white" stroke-width="2" stroke-linecap="round" stroke-linejoin="round"/>
<path d="M15.5 15.5H15.51" stroke="white" stroke-width="2" stroke-linecap="round" stroke-linejoin="round"/>
</svg>

<svg
  width="24"
  height="24"
  viewBox="0 0 24 24"
  xmlns="http://www.w3.org/2000/svg"
  fill="none"
  stroke="currentColor"
  stroke-width="2"
  stroke-linecap="round"
  stroke-linejoin="round"
>
  <path d="M9 15l6-6" />
  <path d="M8.5 9a.5.5 0 1 0 0-1 .5.5 0 0 0 0 1z" />
  <path d="M15.5 16a.5.5 0 1 0 0-1 .5.5 0 0 0 0 1z" />
  <path d="M4.21 6.655A2.445 2.445 0 0 1 6.655 4.21h1.111c.646 0 1.265-.256 1.723-.711l.777-.778a2.445 2.445 0 0 1 3.468 0l.777.778c.458.455 1.077.71 1.723.711h1.111a2.445 2.445 0 0 1 2.445 2.445v1.111c0 .646.256 1.265.711 1.723l.778.777a2.445 2.445 0 0 1 0 3.468l-.778.777a2.444 2.444 0 0 0-.711 1.723v1.111a2.445 2.445 0 0 1-2.445 2.445h-1.111c-.646 0-1.265.256-1.723.711l-.777.778a2.445 2.445 0 0 1-3.468 0l-.777-.778a2.444 2.444 0 0 0-1.723-.711H6.655a2.445 2.445 0 0 1-2.445-2.445v-1.111c0-.646-.256-1.265-.711-1.723l-.778-.777a2.443 2.443 0 0 1 0-3.468l.778-.777c.455-.458.71-1.077.711-1.723V6.655" />
  <path d="M8.5 8.5h.01" />
  <path d="M15.5 15.5h.01" />
</svg>
